src/images/ps5.svg

<?xml version="1.0" encoding="UTF-8"?>
<svg xmlns="http://www.w3.org/2000/svg" xmlns:xlink="http://www.w3.org/1999/xlink" viewBox="0 0 48 48" width="48px" height="48px">
<g id="surface3344922">
<path style=" stroke:none;fill-rule:nonzero;fill:rgb(33.725491%,33.725491%,33.725491%);fill-opacity:1;" d="M 2 30 L 0 30 L 0 26 C 0 24.347656 1.347656 23 3 23 L 12.5 23 C 13.328125 23 14 22.328125 14 21.5 C 14 20.671875 13.328125 20 12.5 20 L 0 20 L 0 18 L 12.5 18 C 14.429688 18 16 19.570312 16 21.5 C 16 23.429688 14.429688 25 12.5 25 L 3 25 C 2.449219 25 2 25.449219 2 26 Z M 2 30 "/>
<path style=" stroke:none;fill-rule:nonzero;fill:rgb(33.725491%,33.725491%,33.725491%);fill-opacity:1;" d="M 20 30 L 13 30 L 13 28 L 20 28 C 20.550781 28 21 27.550781 21 27 L 21 21 C 21 19.347656 22.347656 18 24 18 L 31 18 L 31 20 L 24 20 C 23.449219 20 23 20.449219 23 21 L 23 27 C 23 28.652344 21.652344 30 20 30 Z M 20 30 "/>
<path style=" stroke:none;fill-rule:nonzero;fill:rgb(33.725491%,33.725491%,33.725491%);fill-opacity:1;" d="M 44.5 30 L 33 30 L 33 28 L 44.5 28 C 45.328125 28 46 27.328125 46 26.5 C 46 25.671875 45.328125 25 44.5 25 L 35.570312 25 C 34.152344 25 33 23.847656 33 22.429688 L 33 18 L 47 18 L 47 20 L 35 20 L 35 22.429688 C 35 22.742188 35.257812 23 35.570312 23 L 44.5 23 C 46.429688 23 48 24.570312 48 26.5 C 48 28.429688 46.429688 30 44.5 30 Z M 44.5 30 "/>
</g>
</svg>

<svg xmlns="http://www.w3.org/2000/svg"  viewBox="0 0 48 48" width="48px" height="48px"><path fill="#0076d7" d="M2,30H0v-4c0-1.654,1.346-3,3-3h9.5c0.827,0,1.5-0.673,1.5-1.5S13.327,20,12.5,20H0v-2h12.5	c1.93,0,3.5,1.57,3.5,3.5S14.43,25,12.5,25H3c-0.551,0-1,0.448-1,1V30z"/><path fill="#0076d7" d="M20,30h-7v-2h7c0.551,0,1-0.448,1-1v-6c0-1.654,1.346-3,3-3h7v2h-7c-0.551,0-1,0.448-1,1v6	C23,28.654,21.654,30,20,30z"/><path fill="#0076d7" d="M44.5,30H33v-2h11.5c0.827,0,1.5-0.673,1.5-1.5S45.327,25,44.5,25h-8.929	C34.153,25,33,23.847,33,22.429V18h14v2H35v2.429C35,22.744,35.256,23,35.571,23H44.5c1.93,0,3.5,1.57,3.5,3.5S46.43,30,44.5,30z"/></svg>
